svgs/sharp-solid/burger-soda.svg

<svg xmlns="http://www.w3.org/2000/svg" viewBox="0 0 640 512"><!--! Font Awesome Pro 6.6.0 by @fontawesome - https://fontawesome.com License - https://fontawesome.com/license (Commercial License) Copyright 2024 Fonticons, Inc. --><path d="M224 0L205 0l-4.4 18.5L174.9 128 32 128 0 128l0 64 32 0 301.1 0c14.5-8.5 31.3-16 50.9-21.6l0-42.4-32 0-127.8 0L243 48l37 0 24 0 0-48L280 0 224 0zM40 224L64 512l192 0 0-229.4c3-9.1 6.7-17.5 11.6-25.9c5.4-9.3 13.4-20.8 24.8-32.7L40 224zm600 63.8s-32-96-176-96s-176 96-176 96l0 32 352 0 0-32zm-256-48a16 16 0 1 1 0 32 16 16 0 1 1 0-32zm64 0a16 16 0 1 1 32 0 16 16 0 1 1 -32 0zm96 0a16 16 0 1 1 0 32 16 16 0 1 1 0-32zm-256 112l0 64 352 0 0-64-352 0zm0 96l0 64 352 0 0-64-352 0z"/></svg>

<svg xmlns="http://www.w3.org/2000/svg" viewBox="0 0 640 512"><!--! Font Awesome Pro 6.4.2 by @fontawesome - https://fontawesome.com License - https://fontawesome.com/license (Commercial License) Copyright 2023 Fonticons, Inc. --><path d="M224 0H205l-4.4 18.5L174.9 128H32 0v64H32 333.1c14.5-8.5 31.3-16 50.9-21.6V128H352 224.2L243 48h37 24V0H280 224zM40 224L64 512H256V282.6c3-9.1 6.7-17.5 11.6-25.9c5.4-9.3 13.4-20.8 24.8-32.7H40zm600 63.8s-32-96-176-96s-176 96-176 96v32H640v-32zm-256-48a16 16 0 1 1 0 32 16 16 0 1 1 0-32zm64 0a16 16 0 1 1 32 0 16 16 0 1 1 -32 0zm96 0a16 16 0 1 1 0 32 16 16 0 1 1 0-32zm-256 112v64H640v-64H288zm0 96v64H640v-64H288z"/></svg>
